Komodo/status/24/weather-storm.svg

<?xml version="1.0" encoding="UTF-8" standalone="no"?>
<!-- Created with Inkscape (http://www.inkscape.org/) -->
<svg
   xmlns:svg="http://www.w3.org/2000/svg"
   xmlns="http://www.w3.org/2000/svg"
   version="1.0"
   width="24"
   height="24"
   id="svg3187">
  <defs
     id="defs3189" />
  <path
     d="M 14.28121,6.0313724 C 14.078979,6.0669899 13.893103,6.165395 13.74996,6.3126224 L 6.7499597,13.312623 C 6.4794675,13.592727 6.4010403,14.006667 6.5503237,14.366304 C 6.699607,14.725942 7.0481194,14.962661 7.4374597,14.968873 L 9.8749597,14.968873 L 7.5624597,19.562623 C 7.260429,20.011354 7.3793533,20.619967 7.8280847,20.921998 C 8.2768161,21.224029 8.885429,21.105104 9.1874597,20.656373 L 16.18746,12.656373 C 16.444454,12.365978 16.505468,11.951115 16.342965,11.599024 C 16.180461,11.246933 15.825177,11.024209 15.43746,11.031373 L 13.87496,11.031373 L 15.34371,7.3751224 C 15.482267,7.0466146 15.430958,6.6687227 15.209823,6.389053 C 14.988689,6.1093834 14.632816,5.9723092 14.28121,6.0313724 z"
     id="path3532"
     style="opacity:0.6;fill:#3a3935;fill-opacity:1;fill-rule:evenodd;stroke:none" />
  <path
     d="M 13.024667,4.5002644 C 11.877646,4.4892445 10.825727,5.1203799 10.245013,5.9614315 C 9.2208996,5.3483086 7.7165661,5.8836818 7.3343476,6.8823758 C 7.0219782,7.3540274 7.5723367,7.9759364 6.8238365,8.1620407 C 5.5425712,8.9855717 5.1195154,10.633426 5.8733701,11.857472 C 6.477697,12.926666 7.8486775,13.58105 9.1997263,13.492061 C 11.246391,13.486438 13.293696,13.503453 15.33995,13.483297 C 17.036583,13.39993 18.489962,12.061218 18.497328,10.571969 C 18.554072,9.3889097 17.672934,8.2610057 16.44578,7.7972572 C 16.482745,6.2832096 15.22979,4.7342243 13.460978,4.5269803 C 13.316493,4.5091417 13.170577,4.5002569 13.024667,4.5002644 z"
     id="path2395"
     style="opacity:0.6;fill:none;fill-opacity:1;fill-rule:nonzero;stroke:#3a3935;stroke-width:0.99999982;stroke-linecap:round;stroke-linejoin:miter;marker:none;marker-start:none;marker-mid:none;marker-end:none;stroke-miterlimit:4;stroke-dasharray:none;stroke-dashoffset:0;stroke-opacity:1;visibility:visible;display:inline;overflow:visible;enable-background:accumulate" />
  <path
     d="M 12.99996,5.0001224 C 11.873656,5.0001224 10.919174,5.593884 10.40621,6.4688724 C 10.117363,6.2629263 9.7485097,6.1563724 9.3437097,6.1563724 C 8.4237099,6.1563723 7.6562098,6.774051 7.6562097,7.5626224 C 7.6562096,7.7397231 7.7123828,7.9060776 7.7812097,8.0626224 C 6.7348713,8.4633543 5.9999597,9.3884984 5.9999597,10.437622 C 5.9999597,11.37874 6.5892002,12.155503 7.4687097,12.593873 L 13.74996,6.3126224 C 13.893103,6.165395 14.078979,6.0669899 14.28121,6.0313724 C 14.632816,5.9723092 14.997576,6.0954528 15.21871,6.3751224 C 15.439844,6.6547921 15.482267,7.0466146 15.34371,7.3751224 L 13.87496,11.031373 L 15.43746,11.031373 C 15.825177,11.024209 16.181206,11.241782 16.34371,11.593873 C 16.506214,11.945964 16.444454,12.365978 16.18746,12.656373 L 16.03121,12.843873 C 17.17331,12.483377 17.99996,11.545855 17.99996,10.437622 C 17.99996,9.3092384 17.143724,8.3481024 15.96871,8.0001224 C 15.97132,7.9513076 15.99996,7.8933021 15.99996,7.8438724 C 15.99996,6.2667295 14.65596,5.0001224 12.99996,5.0001224 z"
     id="path2397"
     style="fill:#eae3d1;fill-opacity:1;fill-rule:evenodd;stroke:none;stroke-width:4;stroke-linecap:butt;stroke-linejoin:miter;marker:none;marker-start:none;marker-mid:none;marker-end:none;stroke-miterlimit:4;stroke-dasharray:none;stroke-dashoffset:0;stroke-opacity:1;visibility:visible;display:inline;overflow:visible;enable-background:accumulate" />
  <path
     d="M 14.43746,7.0001224 L 7.4374597,14.000123 L 11.43746,14.000123 L 8.4374597,20.000123 L 15.43746,12.000123 L 12.43746,12.000123 L 14.43746,7.0001224 z"
     id="path3528"
     style="fill:#eae3d1;fill-opacity:1;fill-rule:evenodd;stroke:none" />
</svg>

<?xml version="1.0" encoding="UTF-8" standalone="no"?>
<!-- Created with Inkscape (http://www.inkscape.org/) -->
<svg id="svg3187" xmlns="http://www.w3.org/2000/svg" height="24" width="24" version="1.0">
 <path id="path3532" style="opacity:.6;fill:#3a3935;fill-rule:evenodd" d="m14.281 6.0314c-0.202 0.0356-0.388 0.134-0.531 0.2812l-7 7.0004c-0.2705 0.28-0.349 0.694-0.1997 1.053 0.1493 0.36 0.4978 0.597 0.8872 0.603h2.4375l-2.3125 4.594c-0.3021 0.448-0.1831 1.057 0.2656 1.359s1.0573 0.183 1.3594-0.266l6.9995-8c0.257-0.29 0.318-0.705 0.156-1.057-0.163-0.352-0.518-0.575-0.906-0.568h-1.562l1.469-3.6559c0.138-0.3285 0.087-0.7064-0.134-0.986-0.221-0.2797-0.577-0.4168-0.929-0.3577z"/>
 <path id="path2395" style="opacity:.6;stroke:#3a3935;stroke-linecap:round;fill:none" d="m13.025 4.5003c-1.147-0.0111-2.199 0.6201-2.78 1.4611-1.0241-0.6131-2.5284-0.0777-2.9107 0.921-0.3123 0.4716 0.238 1.0935-0.5105 1.2796-1.2812 0.8236-1.7043 2.471-0.9504 3.695 0.6043 1.07 1.9753 1.724 3.3263 1.635 2.0463-0.006 4.0943 0.011 6.1403-0.009 1.697-0.083 3.15-1.422 3.157-2.911 0.057-1.1831-0.824-2.311-2.051-2.7747 0.037-1.5141-1.216-3.0631-2.985-3.2703-0.145-0.0179-0.29-0.0267-0.436-0.0267z"/>
 <path id="path2397" style="fill-rule:evenodd;fill:#eae3d1" d="m13 5.0001c-1.126 0-2.081 0.5938-2.594 1.4688-0.289-0.206-0.6575-0.3125-1.0623-0.3125-0.92 0-1.6875 0.6177-1.6875 1.4062 0 0.1771 0.0562 0.3435 0.125 0.5-1.0463 0.4008-1.7812 1.3259-1.7812 2.3754 0 0.941 0.5892 1.718 1.4687 2.156l6.2813-6.2814c0.143-0.1472 0.329-0.2456 0.531-0.2812 0.352-0.0591 0.717 0.0641 0.938 0.3437 0.221 0.2797 0.263 0.6715 0.125 1l-1.469 3.6559h1.562c0.388-0.007 0.744 0.211 0.907 0.563 0.162 0.352 0.1 0.772-0.157 1.062l-0.156 0.188c1.142-0.361 1.969-1.298 1.969-2.406 0-1.1288-0.856-2.0899-2.031-2.4379 0.002-0.0488 0.031-0.1068 0.031-0.1562 0-1.5772-1.344-2.8438-3-2.8438z"/>
 <path id="path3528" style="fill:#eae3d1;fill-rule:evenodd" d="m14.437 7.0001l-6.9995 6.9999h3.9995l-2.9995 6 6.9995-8h-3l2-4.9999z"/>
</svg>
